X: 37089
T: Silver Tip, The
R: reel
M: 4/4
K: Dmixolydian
|:DEFG ABAF|(3GFE cE dEcE|DEFG ABAF|GEcE {G}ED D2:|
d2fd efge|(f{a}f{e}f)d ecAG|FAAB cBcG|EFGE {FG}FD D2|
d2fd efge|(3fga fd ecAF|(G{A}G{F}G)B A(F {G}(3FEF)|EFGE FDD2||

